X: 8
T: No_17_Song_of_Y'ak,_the_Medicine_Man_(c).krn
N: Derived from No_17_Song_of_Y'ak,_the_Medicine_Man_(c).krn
%%abc-version 2.0
%%abcx-abcm2ps-target-version 5.9.1 (29 Sep 2008)
%%abc-creator hum2abc beta
%%abcx-conversion-date 2019/03/15 08:26:49
%%humdrum-veritas 3684472630
%%humdrum-veritas-data 1714029995
%%linebreak <none>
%%barnumbers 0
L: 1/8
M: 3/4
%%staves {1 2}
V: 1 clef=bass
V: 2 clef=bass
K: Eb
[V:1] [K:clef=bass][M:3/4]z4z3/ E/ | 
[V:2] [K:clef=bass][M:3/4]G,,G,, G,,G,, G,,G,, | 
[V:1] E z E/E/ z EC | 
[V:2] z6 | 
[V:1] C4B,2 | 
[V:2] z6 | 
[V:1] E z E/E/ z EC | 
[V:2] z6 | 
[V:1] C2DC B, z | 
[V:2] z6 | 
[V:1] C3/C/ C z C z ||  
[V:2] z6 ||  
[V:1] [M:2/4]C4 | 
[V:2] [M:2/4]z4 | 
[V:1] DC B, z ||  
[V:2] z4 ||  
[V:1] [M:3/4]C3/C/ C z C z | 
[V:2] [M:3/4]z6 | 
[V:1] C2C zC2 ]|:  
[V:2] z6 ]|:  
[V:1] E2F/E/ z/ E/ E3/E/ ||  
[V:2] z6 ||  
[V:1] [M:2/4]E/C3/C2 | 
[V:2] [M:2/4]z4 | 
[V:1] EC B, z | 
[V:2] z4 | 
[V:1] E3/E/ E z | 
[V:2] z4 | 
[V:1] E/C3/C2 | 
[V:2] z4 | 
[V:1] EC B, z ||  
[V:2] z4 ||  
[V:1] [M:3/4]C3/C/ C/B,/ z C z ||  
[V:2] [M:3/4]z6 ||  
[V:1] [M:2/4]C4 | 
[V:2] [M:2/4]z4 | 
[V:1] DC B, z ||  
[V:2] z4 ||  
[V:1] [M:3/4]C3/C/ CG,/ z/C2 | 
[V:2] [M:3/4]z6 | 
[V:1] C2z2C2 :|]  
[V:2] z6 :|]  
[V:1] C2z4 |]  
[V:2] z6 |]  



